X: 253
T: Stone Gravel Hornpipe
O: No 253 W. Clarke Feltwell MS
N: crotchets in last bar of  A & B  truncated to three.
M: C
L: 1/8
K: D
fe | dcdA FGAG| D2 D2 dded|cdef gfed| cded cBAG| FAeG GBeG| Acfd BegB| cbag fedc| d2 d2 d2 :||;
ag| fada fada| b3 g2 g2 ba| gbeb gbeb| c'3 a2a2 gf| gbge fafd| egfe dcBA| Bbag fedc| d2 d2 d2 :|| 

